X: 596
T: Nhai zhengshiqi
%%abc-version 2.0
%%abcx-abcm2ps-target-version 5.9.1 (29 Sep 2008)
%%abc-creator hum2abc beta
%%abcx-conversion-date 2013/10/02 07:52:30
%%abc-edited-by Helmut Schaffrath
%%humdrum-veritas 3572172446
%%humdrum-veritas-data 2029581632
%%continueall 1
%%barnumbers 0
L: 1/16
M: 2/4
K: G
e g e d B2 d2 [I:setbarnb 1]| 
e g e de4 | 
d e g2 g e d2 | 
e d B dA4 | 
d2 B2 d e d B | 
A2 d2G4 | 
E E B2 A B G E | 
D8 |]  



